packages/kaspersky-hexa-ui-icons/src/iconsSVGs/24/ArrowsLeft2.svg

<svg width="24" height="24" viewBox="0 0 24 24" fill="none" xmlns="http://www.w3.org/2000/svg">
<path d="M9.70711 3.70711C10.0976 3.31658 10.0976 2.68342 9.70711 2.29289C9.31658 1.90237 8.68342 1.90237 8.29289 2.29289L3.29289 7.29289C2.90237 7.68342 2.90237 8.31658 3.29289 8.70711L8.29289 13.7071C8.68342 14.0976 9.31658 14.0976 9.70711 13.7071C10.0976 13.3166 10.0976 12.6834 9.70711 12.2929L6.41421 9H12C15.3137 9 18 11.6863 18 15V21C18 21.5523 18.4477 22 19 22C19.5523 22 20 21.5523 20 21V15C20 10.5817 16.4183 7 12 7H6.41421L9.70711 3.70711Z" fill="black"/>
</svg>

<svg xmlns="http://www.w3.org/2000/svg" width="24" height="24" fill="none" viewBox="0 0 24 24"><path fill="#000" d="M9.7071 3.7071c.3905-.3905.3905-1.0237 0-1.4142s-1.0237-.3905-1.4142 0l-5 5c-.3905.3905-.3905 1.0237 0 1.4142l5 5c.3905.3905 1.0237.3905 1.4142 0s.3905-1.0237 0-1.4142L6.4142 9H12c3.3137 0 6 2.6863 6 6v6c0 .5523.4477 1 1 1s1-.4477 1-1v-6c0-4.4183-3.5817-8-8-8H6.4142z"/></svg>
